flexa.svg

<svg width="168" height="67" viewBox="0 0 168 67" fill="none" xmlns="http://www.w3.org/2000/svg">
<path d="M48.8146 19.8897C46.3962 20.5261 45.1552 22.4354 45.1552 25.5221C45.1552 26.6676 45.1233 26.7313 44.0732 26.7313C42.6095 26.7313 42.2276 27.304 42.3549 29.3406L42.4503 31.0271L43.7232 31.1862L44.996 31.3453L45.1552 39.3007L45.3143 47.256H47.7008H50.0874L50.2465 39.3007L50.4057 31.3453L51.9967 31.1862L53.5878 31.0271L53.6832 29.277C53.8105 27.2404 53.365 26.7313 51.4239 26.7313H50.1511L50.342 25.5539C50.5966 24.0901 50.883 23.8355 52.3786 23.581C53.556 23.39 53.5878 23.3582 53.6832 21.8626C53.7469 21.0034 53.6196 20.1124 53.3968 19.8579C52.9514 19.3169 50.9466 19.3169 48.8146 19.8897Z" fill="white"/>
<path d="M56.0385 19.7939C55.4976 20.3349 55.4976 46.4919 56.0385 47.0329C56.5477 47.542 60.1753 47.542 60.6844 47.0329C61.1936 46.5237 61.2254 20.9713 60.7481 20.0167C60.4617 19.5075 60.048 19.4121 58.4251 19.4121C57.2796 19.4121 56.2613 19.5712 56.0385 19.7939Z" fill="white"/>
<path d="M70.9635 26.8901C68.7996 27.4947 67.4949 28.2902 65.9993 29.9449C64.1219 32.0451 63.5173 33.7635 63.4855 37.0729C63.4536 39.7141 63.5491 40.1277 64.5037 42.0688C65.6811 44.4554 66.7949 45.5692 69.3406 46.7466C70.8044 47.4148 71.5362 47.5739 73.7955 47.5421C77.9323 47.5421 80.9235 45.9828 82.7055 42.8644C83.8829 40.7642 83.6283 40.4141 80.9553 40.4141C79.1415 40.4141 78.8233 40.5096 77.6141 41.5279C76.8822 42.1325 75.8958 42.7371 75.4184 42.8325C74.9729 42.928 74.432 43.0553 74.241 43.1189C73.5092 43.3417 71.0589 42.578 70.3589 41.9097C69.4997 41.1142 68.7042 39.7141 68.7042 38.9822C68.7042 38.5685 69.627 38.5049 76.1503 38.5049C84.933 38.5049 84.6148 38.6321 84.0738 35.4818C83.5965 32.7452 82.5464 30.7405 80.7326 29.1176C78.1869 26.8583 74.3047 25.9673 70.9635 26.8901ZM76.214 31.6951C77.2959 32.2361 78.5687 33.8908 78.5687 34.8136C78.5687 35.2591 77.996 35.3227 73.6364 35.3227C68.1632 35.3227 68.1314 35.2909 69.436 33.3816C70.8044 31.3451 73.8592 30.5814 76.214 31.6951Z" fill="white"/>
<path d="M111.979 26.858C108.893 27.6853 106.442 29.9764 105.265 33.0631C104.31 35.6088 104.501 39.9047 105.679 42.164C106.761 44.2005 108.543 45.9189 110.547 46.8417C113.602 48.2418 117.866 47.6054 119.775 45.5052L120.412 44.8051L120.571 46.0143L120.73 47.2554L122.735 47.3508C123.944 47.4145 124.93 47.2872 125.217 47.0644C125.567 46.778 125.662 44.9642 125.662 37.0407C125.662 26.0624 125.853 26.7307 122.894 26.7307C121.112 26.7307 120.571 27.1125 120.571 28.4172V29.34L119.457 28.3536C118.312 27.3671 115.702 26.3806 114.239 26.4443C113.793 26.4443 112.775 26.6352 111.979 26.858ZM117.262 31.7902C119.139 32.6494 120.316 34.3359 120.507 36.4361C120.698 38.6636 120.157 40.1274 118.662 41.4957C116.561 43.3732 113.825 43.405 111.756 41.5912C110.356 40.382 109.752 38.9818 109.752 37.1044C109.752 34.5269 110.802 32.8403 113.093 31.7902C114.716 31.0584 115.607 31.0584 117.262 31.7902Z" fill="white"/>
<path d="M84.3923 26.9541C83.565 27.2723 84.0423 28.0679 87.3517 32.2046C89.1973 34.5276 90.7884 36.5959 90.8838 36.8187C90.9793 37.0414 89.3882 39.3008 87.3835 41.8464C85.1242 44.7104 83.7559 46.6833 83.8832 46.9697C84.0105 47.3515 84.5832 47.4152 86.4925 47.3515L88.9109 47.2561L91.4566 44.0103C92.8568 42.2283 94.0978 40.7963 94.2251 40.8282C94.3205 40.86 95.4343 42.1647 96.7071 43.7557C97.9482 45.315 99.1892 46.8106 99.4756 47.0333C100.271 47.6061 104.631 47.5425 104.853 46.9378C104.981 46.6515 103.676 44.774 101.321 41.8146C99.2846 39.2689 97.6936 37.0096 97.7572 36.8187C97.8527 36.5959 99.4438 34.5276 101.289 32.1728C103.135 29.818 104.662 27.7178 104.662 27.5269C104.662 26.9541 103.899 26.7314 101.799 26.7314C99.7301 26.7314 99.6029 26.8586 96.2616 31.0909C95.4025 32.2046 94.6069 33.0956 94.4478 33.0956C94.3205 33.0956 93.2704 31.9182 92.0931 30.4544C89.07 26.7632 89.0064 26.7314 86.7153 26.7632C85.6652 26.7632 84.5832 26.8586 84.3923 26.9541Z" fill="white"/>
</svg>

<svg xmlns="http://www.w3.org/2000/svg" width="168" height="67" fill="#000"><path d="M48.815 19.89c-2.418.636-3.659 2.546-3.659 5.632 0 1.146-.032 1.209-1.082 1.209-1.464 0-1.846.573-1.718 2.609l.095 1.687 1.273.159 1.273.159.159 7.955.159 7.955h2.386 2.387l.159-7.955.159-7.955 1.591-.159 1.591-.159.095-1.75c.127-2.037-.318-2.546-2.259-2.546h-1.273l.191-1.177c.255-1.464.541-1.718 2.037-1.973 1.177-.191 1.209-.223 1.305-1.718.064-.859-.064-1.75-.286-2.005-.445-.541-2.45-.541-4.582.032zm7.224-.096c-.541.541-.541 26.698 0 27.239.509.509 4.137.509 4.646 0s.541-26.062.064-27.016c-.286-.509-.7-.605-2.323-.605-1.145 0-2.164.159-2.387.382zm14.925 7.096c-2.164.605-3.469 1.4-4.964 3.055-1.877 2.1-2.482 3.819-2.514 7.128-.032 2.641.064 3.055 1.018 4.996 1.177 2.387 2.291 3.5 4.837 4.678 1.464.668 2.196.827 4.455.795 4.137 0 7.128-1.559 8.91-4.678 1.177-2.1.923-2.45-1.75-2.45-1.814 0-2.132.096-3.341 1.114-.732.605-1.718 1.209-2.196 1.305-.446.095-.986.223-1.177.286-.732.223-3.182-.541-3.882-1.209-.859-.796-1.655-2.196-1.655-2.928 0-.414.923-.477 7.446-.477 8.783 0 8.465.127 7.924-3.023-.477-2.737-1.527-4.741-3.341-6.364-2.546-2.259-6.428-3.15-9.769-2.227zm5.251 4.805c1.082.541 2.355 2.196 2.355 3.119 0 .445-.573.509-4.932.509-5.473 0-5.505-.032-4.2-1.941 1.368-2.037 4.423-2.8 6.778-1.686zm35.764-4.837c-3.086.827-5.537 3.118-6.714 6.205-.955 2.546-.764 6.842.414 9.101 1.082 2.036 2.864 3.755 4.868 4.678 3.055 1.4 7.319.764 9.228-1.337l.637-.7.159 1.209.159 1.241 2.005.095c1.209.064 2.195-.064 2.482-.286.35-.286.445-2.1.445-10.024 0-10.978.191-10.31-2.768-10.31-1.782 0-2.323.382-2.323 1.687v.923l-1.114-.986c-1.145-.986-3.755-1.973-5.218-1.909-.446 0-1.464.191-2.26.414zm5.283 4.932c1.877.859 3.054 2.546 3.245 4.646.191 2.227-.35 3.691-1.845 5.06-2.101 1.877-4.837 1.909-6.906.096-1.4-1.209-2.004-2.609-2.004-4.487 0-2.578 1.05-4.264 3.341-5.314 1.623-.732 2.514-.732 4.169 0zm-32.87-4.836c-.827.318-.35 1.114 2.959 5.25l3.532 4.614c.096.223-1.496 2.482-3.5 5.028-2.259 2.864-3.628 4.837-3.5 5.123.127.382.7.445 2.609.382l2.418-.095 2.546-3.246c1.4-1.782 2.641-3.214 2.769-3.182.095.032 1.209 1.337 2.482 2.927l2.769 3.278c.795.573 5.155.509 5.377-.095.128-.286-1.177-2.164-3.532-5.123-2.036-2.546-3.627-4.805-3.564-4.996.096-.223 1.687-2.291 3.532-4.646l3.373-4.646c0-.573-.763-.796-2.863-.796-2.069 0-2.196.127-5.537 4.36-.859 1.114-1.655 2.005-1.814 2.005-.127 0-1.177-1.177-2.355-2.641-3.023-3.691-3.087-3.723-5.378-3.691-1.05 0-2.132.095-2.323.191z"/></svg>
